X: 1
T: the Belfast Almanac
R: jig
Z: John Chambers <jc:trillian.mit.edu>
M: 6/8
L: 1/8
K: G
zD \
| "G"G>AG "D7"FED | "C"E2F "D7"G2A | "G"B2G "D7"c2A | "G"B2G "D7"c2A |
| "G"B>cd "Em"E2E | "Am"A>BG "D7"FED | "C"E>FG "D7"AFD | "G"G3 G :|
|: dc \
| "G"B>cd "D7"def | "Em"g2g g3 | "G"B2B "G7"Bcd | "C"e2e e2e |
| "G"d>cB "C"cde | "G"d>cd D2D | "C"E>FG "D7"AFD | "G"G3 G :|
